svg/300/sharp/create_new_folder.svg

<svg xmlns="http://www.w3.org/2000/svg" width="48" height="48" viewBox="0 -960 960 960"><path d="M100.001-180.001v-599.998h307.152l65.385 65.385h387.461v534.613H100.001Zm45.384-45.384h669.23V-669.23H454.006l-65.314-65.385H145.385v509.23Zm0 0v-509.23 509.23Zm417.308-104.616h45.384v-87.307h87.307v-45.384h-87.307v-87.307h-45.384v87.307h-87.307v45.384h87.307v87.307Z"/></svg>

<svg xmlns="http://www.w3.org/2000/svg" width="48" height="48" viewBox="0 -960 960 960"><path d="M100-180v-600h307.15l65.39 65.39H860V-180H100Zm45.39-45.39h669.22v-443.84h-360.6l-65.32-65.38h-243.3v509.22Zm0 0v-509.22 509.22ZM562.69-330h45.39v-87.31h87.3v-45.38h-87.3V-550h-45.39v87.31h-87.3v45.38h87.3V-330Z"/></svg>
